X: 31275
T: Paddy Hearny's
R: polka
M: 2/4
K: Dmajor
|:A/G/|FA de|fA A2|Bc/B/ GB|dA AG|
FA de|fA A2|Bc/B/ GE|D2 D:|
|:F|A>B AG|FA dc|B2 BA|GF E2|
AB AG|FA dc|Bc/B/ GE|D2- D:|

